deployments/warp_routes/HYPER/logo.svg

<svg xmlns="http://www.w3.org/2000/svg" width="1000" height="1000" fill="none" viewBox="0 0 1000 1000"><g clip-path="url(#a)"><mask id="b" width="1000" height="1000" x="0" y="0" maskUnits="userSpaceOnUse" style="mask-type:alpha"><circle cx="500" cy="500" r="500" fill="#2764C1"/></mask><g mask="url(#b)"><path fill="#D631B9" d="M0 0h1000v1000H0z"/><path fill="#2764C1" d="M495.652 253h100.467c13.707 0 25.97 7.959 30.755 19.961l88.184 221.187a7.2 7.2 0 0 1 .023 5.295l-.494 1.271-.005.012-87.813 225.798c-4.715 12.122-17.043 20.192-30.846 20.192H495.471c-5.649 0-9.609-5.21-7.747-10.193l90.547-242.375-90.325-230.849c-1.957-5.002 2.006-10.299 7.706-10.299m-262.259 0H333.86c13.707 0 25.97 7.959 30.754 19.961l88.185 221.187a7.2 7.2 0 0 1 .023 5.295l-.495 1.271-.005.012-87.813 225.798c-4.714 12.122-17.042 20.192-30.845 20.192H233.212c-5.649 0-9.609-5.21-7.747-10.193l90.547-242.375-90.325-230.849c-1.957-5.002 2.006-10.299 7.706-10.299"/><path fill="#2764C1" d="M563.826 447H422v107h141.826L587 498.971z"/><path fill="#fff" d="M553.652 253h100.467c13.707 0 25.97 7.959 30.755 19.961l88.184 221.187a7.2 7.2 0 0 1 .023 5.295l-.494 1.271-.005.012-87.813 225.798c-4.715 12.122-17.043 20.192-30.846 20.192H553.471c-5.649 0-9.609-5.21-7.747-10.193l90.547-242.375-90.325-230.849c-1.957-5.002 2.006-10.299 7.706-10.299m-262.259 0H391.86c13.707 0 25.97 7.959 30.754 19.961l88.185 221.187a7.2 7.2 0 0 1 .023 5.295l-.495 1.271-.005.012-87.813 225.798c-4.714 12.122-17.042 20.192-30.845 20.192H291.212c-5.649 0-9.609-5.21-7.747-10.193l90.547-242.375-90.325-230.849c-1.957-5.002 2.006-10.299 7.706-10.299"/><path fill="#fff" d="M621.826 447H480v107h141.826L645 498.971z"/></g></g><defs><clipPath id="a"><path fill="#fff" d="M0 0h1000v1000H0z"/></clipPath></defs></svg>

<svg width="1000" height="1000" viewBox="0 0 1000 1000" fill="none" xmlns="http://www.w3.org/2000/svg">
<g clip-path="url(#clip0_3581_2)">
<mask id="mask0_3581_2" style="mask-type:alpha" maskUnits="userSpaceOnUse" x="0" y="0" width="1000" height="1000">
<circle cx="500" cy="500" r="500" fill="#2764C1"/>
</mask>
<g mask="url(#mask0_3581_2)">
<rect width="1000" height="1000" fill="#D631B9"/>
<path d="M495.652 253H596.119C609.826 253 622.089 260.959 626.874 272.961L715.058 494.148C715.739 495.854 715.747 497.731 715.081 499.443L714.587 500.714L714.582 500.726L626.769 726.524C622.054 738.646 609.726 746.716 595.923 746.716H495.471C489.822 746.716 485.862 741.506 487.724 736.523L578.271 494.148L487.946 263.299C485.989 258.297 489.952 253 495.652 253Z" fill="#2764C1"/>
<path d="M233.393 253H333.86C347.567 253 359.83 260.959 364.614 272.961L452.799 494.148C453.479 495.854 453.487 497.731 452.822 499.443L452.327 500.714L452.322 500.726L364.509 726.524C359.795 738.646 347.467 746.716 333.664 746.716H233.212C227.563 746.716 223.603 741.506 225.465 736.523L316.012 494.148L225.687 263.299C223.73 258.297 227.693 253 233.393 253Z" fill="#2764C1"/>
<path d="M563.826 447H422V554H563.826L587 498.971L563.826 447Z" fill="#2764C1"/>
<path d="M553.652 253H654.119C667.826 253 680.089 260.959 684.874 272.961L773.058 494.148C773.739 495.854 773.747 497.731 773.081 499.443L772.587 500.714L772.582 500.726L684.769 726.524C680.054 738.646 667.726 746.716 653.923 746.716H553.471C547.822 746.716 543.862 741.506 545.724 736.523L636.271 494.148L545.946 263.299C543.989 258.297 547.952 253 553.652 253Z" fill="white"/>
<path d="M291.393 253H391.86C405.567 253 417.83 260.959 422.614 272.961L510.799 494.148C511.479 495.854 511.487 497.731 510.822 499.443L510.327 500.714L510.322 500.726L422.509 726.524C417.795 738.646 405.467 746.716 391.664 746.716H291.212C285.563 746.716 281.603 741.506 283.465 736.523L374.012 494.148L283.687 263.299C281.73 258.297 285.693 253 291.393 253Z" fill="white"/>
<path d="M621.826 447H480V554H621.826L645 498.971L621.826 447Z" fill="white"/>
</g>
</g>
<defs>
<clipPath id="clip0_3581_2">
<rect width="1000" height="1000" fill="white"/>
</clipPath>
</defs>
</svg>
